logos/codecademy.svg

<?xml version="1.0" encoding="UTF-8" standalone="no"?>
<svg width="512px" height="108px" viewBox="0 0 512 108" version="1.1" xmlns="http://www.w3.org/2000/svg" xmlns:xlink="http://www.w3.org/1999/xlink" preserveAspectRatio="xMidYMid">
	<g fill="#204156">
		<path d="M20.9477107,74.177213 C20.0257421,71.3808143 19.5683453,67.8507868 19.5683453,63.1046218 C19.5683453,58.3566632 20.0257421,54.8194609 20.9477107,52.0302369 C23.5234828,44.0266889 30.3467675,39.6536163 39.2812527,39.6536163 C45.9161976,39.6536163 51.1699833,42.3531546 54.6748988,46.6347478 C54.9457495,47.0042527 55.0372289,47.5620975 54.5816257,47.9333961 L48.7789637,53.0526534 C48.3161857,53.4275395 47.8569952,53.3342664 47.4856966,52.8696947 C45.2722545,50.3584963 42.9691269,48.9594001 39.2830464,48.9594001 C35.3225278,48.9594001 32.2839777,50.9145474 30.9907105,54.8230483 C30.2588756,57.0616023 30.0705357,59.66428 30.0705357,63.1064156 C30.0705357,66.5485511 30.2570819,69.2462956 30.9907105,71.4812622 C32.282184,75.2929026 35.3225278,77.2480499 39.2830464,77.2480499 C42.9691269,77.2480499 45.2722545,75.8507474 47.4856966,73.3449301 C47.8569952,72.8731836 48.3161857,72.8731836 48.7789637,73.2462759 L54.5816257,78.3655332 C55.0372289,78.7368318 54.9457495,79.2031972 54.6748988,79.6695627 C51.171777,83.8596765 45.9179913,86.5556274 39.2812527,86.5556274 C30.3467675,86.55204 23.5234828,82.1753799 20.9477107,74.177213"></path>
		<path d="M222.274073,74.177213 C221.352105,71.3808143 220.894708,67.8507868 220.894708,63.1046218 C220.894708,58.3566632 221.352105,54.8194609 222.274073,52.0302369 C224.855226,44.0266889 231.671336,39.6536163 240.605821,39.6536163 C247.24256,39.6536163 252.498139,42.3531546 255.997674,46.6347478 C256.272112,47.0042527 256.367179,47.5620975 255.902607,47.9333961 L250.098151,53.0526534 C249.637167,53.4275395 249.17977,53.3342664 248.810265,52.8696947 C246.600411,50.3584963 244.295489,48.9594001 240.605821,48.9594001 C236.647096,48.9594001 233.604959,50.9145474 232.317073,54.8230483 C231.578063,57.0616023 231.398692,59.66428 231.398692,63.1064156 C231.398692,66.5485511 231.578063,69.2462956 232.317073,71.4812622 C233.604959,75.2929026 236.647096,77.2480499 240.605821,77.2480499 C244.295489,77.2480499 246.600411,75.8507474 248.810265,73.3449301 C249.17977,72.8731836 249.638961,72.8731836 250.098151,73.2462759 L255.902607,78.3655332 C256.367179,78.7368318 256.272112,79.2031972 255.997674,79.6695627 C252.498139,83.8596765 247.24256,86.5556274 240.605821,86.5556274 C231.671336,86.55204 224.855226,82.1753799 222.274073,74.177213"></path>
		<path d="M454.96351,85.5314172 C454.411046,85.5314172 454.043335,85.1619123 454.043335,84.5986864 L454.043335,58.7315492 C454.043335,52.9611741 451.184156,48.9576063 445.654139,48.9576063 C440.310667,48.9576063 437.178844,52.9593803 437.178844,58.7315492 L437.178844,84.5986864 C437.178844,85.1601186 436.807545,85.5314172 436.258669,85.5314172 L427.777993,85.5314172 C427.22553,85.5314172 426.854231,85.1619123 426.854231,84.5986864 L426.854231,58.7315492 C426.854231,52.9611741 423.99864,48.9576063 418.477591,48.9576063 C413.130532,48.9576063 409.995121,52.9593803 409.995121,58.7315492 L409.995121,84.5986864 C409.995121,85.1601186 409.62741,85.5314172 409.073153,85.5314172 L400.596065,85.5314172 C400.040013,85.5314172 399.67589,85.1619123 399.67589,84.5986864 L399.67589,41.6069699 C399.67589,41.0473314 400.040013,40.6742391 400.596065,40.6742391 L409.073153,40.6742391 C409.62741,40.6742391 409.995121,41.0473314 409.995121,41.6069699 L409.995121,44.864353 L410.088394,44.864353 C412.025605,42.0715416 415.89285,39.6536163 421.788785,39.6536163 C427.042571,39.6536163 431.281115,41.7899286 433.948367,45.6069502 L434.043433,45.6069502 C437.451488,41.8885829 441.876579,39.6536163 448.235292,39.6536163 C458.550936,39.6536163 464.360773,46.7244335 464.360773,56.3100365 L464.360773,84.5968926 C464.360773,85.1601186 463.989474,85.5314172 463.435217,85.5314172 L454.96351,85.5314172 L454.96351,85.5314172 Z"></path>
		<path d="M477.162503,102.279317 C476.611834,102.279317 476.244122,101.906224 476.244122,101.344792 L476.244122,93.9026764 C476.244122,93.3466253 476.611834,92.9681518 477.162503,92.9681518 L478.823482,92.9681518 C482.323016,92.9681518 484.079061,91.3932717 485.458427,87.6677295 L486.7499,83.8525017 L470.531146,41.6051762 C470.3446,41.0455377 470.715898,40.6724454 471.27195,40.6724454 L480.391187,40.6724454 C480.943651,40.6724454 481.313156,41.0455377 481.492527,41.6051762 L491.540908,70.9180363 L491.722073,70.9180363 L501.307676,41.6051762 C501.492428,41.0455377 501.861933,40.6724454 502.409016,40.6724454 L511.160542,40.6724454 C511.718387,40.6724454 512.087892,41.0455377 511.899552,41.6051762 L494.948963,88.3188474 C491.081717,98.9286606 487.390256,102.275729 480.021682,102.275729 L477.162503,102.279317 L477.162503,102.279317 Z"></path>
		<path d="M63.1519871,74.1808005 C62.1385392,71.0113093 61.6775549,68.0355393 61.6775549,63.1046218 C61.6775549,58.1808793 62.1385392,55.2015218 63.1519871,52.0445866 C65.6398672,44.2275848 72.4523897,39.6661723 81.4801479,39.6661723 C90.4128393,39.6661723 97.2289492,44.2257911 99.7168294,52.0445866 C100.724896,55.2015218 101.189468,58.1808793 101.189468,63.1046218 C101.189468,68.0355393 100.724896,71.0113093 99.7168294,74.1808005 C97.2271555,81.9924212 90.4128393,86.5502462 81.4801479,86.5502462 C72.4523897,86.55204 65.6398672,81.9942149 63.1519871,74.1808005 M89.7688963,71.3897828 C90.5079061,69.0669243 90.6908649,66.9234371 90.6908649,63.1064156 C90.6908649,59.3001563 90.5079061,57.2499422 89.7688963,54.8338106 C88.4810103,51.1154432 85.6236253,48.9701623 81.4801479,48.9701623 C77.3384643,48.9701623 74.3860125,51.1154432 73.0999201,54.8338106 C72.3662915,57.2517359 72.1797453,59.3001563 72.1797453,63.1064156 C72.1797453,66.9234371 72.3662915,69.0669243 73.0999201,71.3897828 C74.3860125,75.115325 77.340258,77.2480499 81.4801479,77.2480499 C85.6236253,77.2462562 88.4810103,75.1135313 89.7688963,71.3897828"></path>
		<path d="M280.688135,39.6536163 C273.407453,39.6536163 268.52676,41.4204237 264.930365,44.0266889 C264.566241,44.3100956 264.471175,44.7692862 264.750994,45.2338579 L268.151874,51.3791191 C268.437074,51.8454845 268.982363,51.9387576 269.446935,51.5656652 C271.567104,49.8939246 274.60386,48.4930346 279.583208,48.4930346 C286.842365,48.4930346 289.306927,50.6957144 289.432487,55.5369461 L289.43428,55.5369461 L289.43428,55.5961387 C289.437868,55.7091426 289.437868,55.8239402 289.437868,55.944119 L289.437868,70.4624331 C289.437868,75.5798967 285.938333,78.0875077 279.583208,78.0875077 C274.60386,78.0875077 271.934815,76.2310146 271.934815,72.5108535 C271.934815,68.3207396 274.885473,66.455278 281.516831,66.455278 L283.532964,66.4588654 C284.085428,66.4588654 284.456726,66.0857731 284.456726,65.5315157 L284.456726,59.5656258 C284.456726,59.0095748 284.085428,58.6382761 283.532964,58.6382761 L283.089917,58.6382761 L279.85944,58.6364824 C268.896265,58.6364824 262.071186,63.110003 262.071186,72.8749773 C262.071186,82.2758278 268.896265,86.5538337 277.000261,86.5538337 C283.26032,86.5538337 287.409178,84.4157276 289.529347,81.3448907 L289.619033,81.3448907 L289.619033,84.6022738 C289.619033,85.1619123 289.992125,85.5350046 290.542795,85.5350046 L298.280874,85.5350046 C298.835131,85.5350046 299.204636,85.163706 299.204636,84.6022738 L299.204636,55.2894137 C299.20643,44.3100956 294.232463,39.6536163 280.688135,39.6536163"></path>
		<path d="M170.606166,58.632895 C170.365809,58.632895 170.207962,58.7925355 170.207962,59.032893 L170.207962,59.2983626 L170.207962,60.0768341 L170.207962,65.0059578 L170.207962,65.6678379 L170.207962,66.0498988 C170.207962,66.2902564 170.365809,66.4516906 170.606166,66.4516906 L170.835761,66.4516906 L193.422197,66.4516906 C194.067934,66.4516906 194.437439,66.0821856 194.437439,65.5279283 C194.437439,58.2633901 193.972867,55.1907595 192.963007,52.0302369 C190.471539,44.3997813 183.840182,39.65541 174.717357,39.65541 C165.872557,39.65541 159.056447,44.2132351 156.56498,52.0302369 C155.648392,54.9145277 155.090548,58.45173 155.090548,63.1046218 C155.090548,67.7575137 155.736284,71.1978555 156.663634,74.0857337 C159.14972,81.8991481 165.781078,86.55204 175.178341,86.55204 C183.37561,86.55204 189.646431,83.38793 193.420404,78.9215843 C193.786321,78.4588063 193.786321,77.9942346 193.327131,77.6175548 L187.895767,72.7799105 C187.431195,72.4086119 186.972005,72.5054724 186.509227,72.9664567 C184.301166,75.3879694 181.07607,77.2480499 176.10031,77.2480499 C171.12993,77.2480499 167.625015,74.8301246 166.150583,70.4588457 C165.928162,69.8471895 165.74341,69.2050402 165.626819,68.5072858 L165.625025,68.5072858 C165.2896,66.6131247 165.092292,64.7691876 165.092292,62.0606808 C165.164041,59.508227 165.311125,57.8777418 165.673455,55.8060031 C165.677043,55.7773037 165.682424,55.7521917 165.687805,55.725286 C165.691392,55.7037614 165.69498,55.687618 165.698567,55.6660935 L165.698567,55.6678872 C165.786459,55.1799972 165.906638,54.7208066 166.055516,54.2634098 C167.253716,50.6347281 170.570292,48.4948283 174.812424,48.4948283 C178.959488,48.4948283 182.270683,50.6347281 183.468883,54.2634098 C183.840182,55.3862742 184.021347,56.4965827 184.021347,58.0822251 C184.021347,58.4535237 183.838388,58.6364824 183.468883,58.6364824 L171.363113,58.6364824 L171.364907,58.6346887 L170.606166,58.632895 L170.606166,58.632895 Z"></path>
		<path d="M146.530949,22.2563926 L138.06821,22.2563926 C137.510365,22.2563926 137.142654,22.6276912 137.142654,23.1801549 L137.142654,44.9217518 L137.142654,62.9019323 L137.142654,63.0454293 L137.142654,63.1889264 L137.142654,65.5763585 L137.096017,65.5763585 C136.997363,68.1413683 136.719338,69.8274587 136.226067,71.40772 C135.02966,75.1207061 132.172275,77.1637454 127.944493,77.1637454 C123.804603,77.1637454 120.954393,75.1207061 119.752605,71.40772 C119.110456,69.3610933 118.837811,67.1333015 118.837811,63.0454293 C118.837811,58.9593508 119.110456,56.7261779 119.752605,54.6867261 C120.931075,51.0436947 123.689805,48.9863057 127.693373,48.9055887 L131.305911,48.9055887 C131.481695,48.8625395 131.596493,48.7244236 131.596493,48.5235278 L131.643129,40.0285023 C131.643129,39.8114631 131.506807,39.6661723 131.305911,39.6410603 L128.421621,39.630298 L125.031503,39.630298 L125.031503,39.6320917 C117.614499,39.7110151 112.184929,43.3271408 109.910501,50.4033391 C108.805574,53.8454746 108.346383,57.0095846 108.346383,63.0454293 C108.346383,69.0830677 108.805574,72.2435903 109.910501,75.6785509 C112.210041,82.8354663 117.73109,86.4587669 125.273654,86.4587669 C131.257481,86.4587669 134.938181,84.2327689 137.049381,81.161932 L137.139067,81.161932 L137.139067,84.507207 C137.139067,85.0668455 137.508571,85.4381441 138.064623,85.4381441 L146.527361,85.4381441 C147.079825,85.4381441 147.44933,85.0686392 147.44933,84.507207 L147.44933,23.1801549 C147.452917,22.6258975 147.083412,22.2563926 146.530949,22.2563926"></path>
		<path d="M368.386358,58.632895 C368.149588,58.632895 367.988153,58.7925355 367.988153,59.032893 L367.988153,59.2983626 L367.988153,60.0768341 L367.988153,65.0059578 L367.988153,65.6678379 L367.988153,66.0498988 C367.988153,66.2902564 368.149588,66.4516906 368.386358,66.4516906 L368.61954,66.4516906 L391.20777,66.4516906 C391.851713,66.4516906 392.221218,66.0821856 392.221218,65.5279283 C392.221218,58.2633901 391.75844,55.1907595 390.748579,52.0302369 C388.257112,44.3997813 381.623961,39.65541 372.504723,39.65541 C363.65813,39.65541 356.84202,44.2132351 354.350552,52.0302369 C353.432171,54.9145277 352.87612,58.45173 352.87612,63.1046218 C352.87612,67.7575137 353.521857,71.1978555 354.449207,74.0857337 C356.933499,81.8991481 363.566651,86.55204 372.963914,86.55204 C381.161183,86.55204 387.432004,83.38793 391.20777,78.9215843 C391.573687,78.4588063 391.573687,77.9942346 391.112703,77.6175548 L385.68134,72.7799105 C385.218562,72.4086119 384.759371,72.5054724 384.296593,72.9664567 C382.088532,75.3879694 378.86523,77.2480499 373.885882,77.2480499 C368.915503,77.2480499 365.412381,74.8301246 363.936155,70.4588457 C363.715529,69.8471895 363.528983,69.2050402 363.415979,68.5072858 L363.414185,68.5072858 C363.076967,66.6131247 362.879658,64.7691876 362.879658,62.0606808 C362.94782,59.508227 363.094904,57.8777418 363.459028,55.8060031 C363.466203,55.7773037 363.46979,55.7521917 363.473377,55.725286 C363.476965,55.7037614 363.480552,55.687618 363.48414,55.6660935 L363.48414,55.6678872 C363.575619,55.1799972 363.694004,54.7208066 363.842882,54.2634098 C365.039289,50.6347281 368.357658,48.4948283 372.59979,48.4948283 C376.746855,48.4948283 380.058049,50.6347281 381.25625,54.2634098 C381.625754,55.3862742 381.810507,56.4965827 381.810507,58.0822251 C381.810507,58.4535237 381.625754,58.6364824 381.25625,58.6364824 L369.15048,58.6364824 L369.15048,58.6346887 L368.386358,58.632895 L368.386358,58.632895 Z"></path>
		<path d="M336.271718,22.2563926 C335.71746,22.2563926 335.347955,22.6294849 335.347955,23.1819486 L335.347955,44.9540386 L335.347955,62.9629185 L335.347955,63.2499126 L335.347955,65.6409322 C335.202665,68.2095294 334.922845,69.8974135 334.429574,71.4794685 C333.231374,75.1996295 330.368608,77.2480499 326.137239,77.2480499 C321.993761,77.2480499 319.13817,75.1996295 317.934588,71.4794685 C317.294233,69.4292544 317.014414,67.1996689 317.014414,63.1046218 C317.014414,59.0131622 317.290645,56.7746082 317.934588,54.7333626 C319.113058,51.0849501 321.87717,49.0437046 325.887912,48.9629875 L329.505832,48.9647812 C330.060089,48.9647812 330.429594,48.5934826 330.429594,48.0392252 L330.429594,40.5827597 C330.429594,40.0267086 330.060089,39.65541 329.505832,39.65541 L329.062785,39.65541 L323.593753,39.6536163 L323.4664,39.6536163 L323.348015,39.6536163 L323.222455,39.6536163 C315.796482,39.7325397 310.357944,43.3558402 308.081722,50.4428008 C306.975001,53.8903175 306.515811,57.0562211 306.515811,63.1010344 C306.515811,69.1476414 306.975001,72.3153388 308.081722,75.7556806 C310.383056,82.9197709 315.914867,86.5502462 323.468193,86.5502462 C329.459195,86.5502462 333.145276,84.3224545 335.261857,81.2462365 L335.351543,84.5950989 C335.351543,85.1583249 335.721048,85.5278298 336.277099,85.5278298 L344.754187,85.5278298 C345.306651,85.5278298 345.677949,85.1601186 345.677949,84.5950989 L345.677949,23.1819486 C345.670775,22.6276912 345.30127,22.2563926 344.7506,22.2563926 L336.271718,22.2563926 Z"></path>
		<path d="M221.5817,98.2183502 L221.5817,106.697232 C221.5817,107.255077 221.951205,107.624582 222.505462,107.624582 L253.924141,107.624582 C254.485574,107.624582 254.856872,107.253283 254.856872,106.697232 L254.856872,98.2183502 C254.856872,97.6676803 254.485574,97.2963816 253.924141,97.2963816 L222.505462,97.2963816 C221.951205,97.2963816 221.5817,97.6676803 221.5817,98.2183502"></path>
		<path d="M213.605058,0.299550094 C213.590708,0.285200389 213.581739,0.267263257 213.569183,0.254707265 C213.56739,0.252913552 213.565596,0.252913552 213.565596,0.252913552 C213.404162,0.0932730831 213.174566,0 212.901922,0 L212.89116,0 L1.11641827,0 C1.04646345,0 0.980096068,0.00717485254 0.915522395,0.0179371314 C0.897585264,0.0215245576 0.881441846,0.0286994102 0.861711001,0.0322868365 C0.820455599,0.0430491153 0.775612771,0.0520176809 0.737944795,0.0681610992 C0.730769942,0.0699548123 0.725388803,0.0735422386 0.720007664,0.0771296649 C0.39175816,0.21165815 0.190862288,0.518383096 0.190862288,0.923762265 L0.190862288,0.927349691 L0.190862288,106.684676 L0.190862288,106.691851 C0.190862288,107.014719 0.316422208,107.267633 0.528080358,107.429067 C0.544223776,107.445211 0.558573481,107.45956 0.580098039,107.470323 L0.580098039,107.472116 C0.727182516,107.565389 0.90655383,107.615613 1.11641827,107.615613 L212.889366,107.615613 L212.900128,107.615613 C213.212234,107.615613 213.465148,107.495435 213.624788,107.289158 C213.750348,107.134898 213.823891,106.932209 213.823891,106.690057 L213.823891,106.682882 L213.823891,0.927349691 L213.823891,0.923762265 C213.823891,0.670848713 213.743173,0.45739685 213.605058,0.299550094 L213.605058,0.299550094 Z M11.4302688,97.2927942 C11.3639014,97.2927942 11.2993277,97.2874131 11.2419289,97.2784445 C11.2239918,97.2748571 11.2042609,97.2658885 11.1863238,97.2605074 C11.1432747,97.2515388 11.1002256,97.2425703 11.0607639,97.2264268 C11.053589,97.2246331 11.0500016,97.219252 11.0428268,97.2174583 C10.716371,97.0847235 10.5172688,96.7797923 10.5154751,96.3780005 L10.5154751,19.7218759 L10.5154751,11.2465814 C10.5154751,10.8394085 10.716371,10.536271 11.0428268,10.3999488 C11.0517953,10.3981551 11.0571765,10.3927739 11.0625576,10.3909802 C11.1002256,10.3766305 11.2221981,10.3461374 11.2419289,10.3407562 C11.3029152,10.3317877 11.3674888,10.3264065 11.4338562,10.3264065 L202.579103,10.3264065 C202.647264,10.3264065 202.710044,10.3317877 202.77103,10.3407562 C202.790761,10.3461374 202.808698,10.3533122 202.824842,10.3586934 C202.867891,10.3676619 202.91094,10.3766305 202.950401,10.3927739 C202.95937,10.3945676 202.962957,10.3999488 202.970132,10.4017425 C203.298382,10.536271 203.497484,10.8412022 203.497484,11.2483751 L203.497484,96.3797942 C203.49569,96.7833797 203.294794,97.0883109 202.971926,97.2210457 C202.964751,97.2228394 202.961164,97.2282205 202.952195,97.2300143 C202.914527,97.244364 202.869684,97.2551262 202.828429,97.2640948 C202.808698,97.2694759 202.792555,97.2784445 202.772824,97.2820319 C202.711838,97.2927942 202.652645,97.2963816 202.586278,97.2963816 L11.4302688,97.2963816 L11.4302688,97.2927942 L11.4302688,97.2927942 Z"></path>
	</g>
</svg>

<svg preserveAspectRatio="xMidYMid" viewBox="0 0 512 108" xmlns="http://www.w3.org/2000/svg">
  <g fill="#204156">
    <path d="M20.948 74.177c-.922-2.796-1.38-6.326-1.38-11.072 0-4.748.458-8.286 1.38-11.075 2.575-8.003 9.399-12.376 18.333-12.376 6.635 0 11.889 2.7 15.394 6.98.27.37.362.928-.093 1.3l-5.803 5.119c-.463.375-.922.281-1.293-.183-2.214-2.512-4.517-3.91-8.203-3.91-3.96 0-6.999 1.955-8.292 5.863-.732 2.239-.92 4.841-.92 8.283 0 3.443.186 6.14.92 8.375 1.291 3.812 4.332 5.767 8.292 5.767 3.686 0 5.99-1.397 8.203-3.903.371-.472.83-.472 1.293-.099l5.803 5.12c.455.37.364.837.093 1.304-3.503 4.19-8.757 6.886-15.394 6.886-8.934-.004-15.758-4.38-18.333-12.379"/>
    <path d="M222.274 74.177c-.922-2.796-1.38-6.326-1.38-11.072 0-4.748.458-8.286 1.38-11.075 2.581-8.003 9.397-12.376 18.332-12.376 6.637 0 11.892 2.7 15.392 6.98.274.37.37.928-.095 1.3l-5.805 5.119c-.46.375-.918.281-1.288-.183-2.21-2.512-4.515-3.91-8.204-3.91-3.959 0-7.001 1.955-8.289 5.863-.739 2.239-.918 4.841-.918 8.283 0 3.443.18 6.14.918 8.375 1.288 3.812 4.33 5.767 8.289 5.767 3.69 0 5.994-1.397 8.204-3.903.37-.472.829-.472 1.288-.099l5.805 5.12c.464.37.37.837.095 1.304-3.5 4.19-8.755 6.886-15.392 6.886-8.935-.004-15.75-4.38-18.332-12.379"/>
    <path d="M454.964 85.531c-.553 0-.92-.37-.92-.932V58.732c0-5.77-2.86-9.774-8.39-9.774-5.343 0-8.475 4.001-8.475 9.774v25.867c0 .561-.371.932-.92.932h-8.481c-.552 0-.924-.37-.924-.932V58.732c0-5.77-2.855-9.774-8.376-9.774-5.347 0-8.483 4.001-8.483 9.774v25.867c0 .561-.368.932-.922.932h-8.477c-.556 0-.92-.37-.92-.932V41.607c0-.56.364-.933.92-.933h8.477c.554 0 .922.373.922.933v3.257h.093c1.938-2.792 5.805-5.21 11.7-5.21 5.255 0 9.493 2.136 12.16 5.953h.095c3.408-3.718 7.834-5.953 14.192-5.953 10.316 0 16.126 7.07 16.126 16.656v28.287c0 .563-.372.934-.926.934h-8.471Z"/>
    <path d="M477.163 102.28c-.551 0-.919-.374-.919-.935v-7.442c0-.556.368-.935.919-.935h1.66c3.5 0 5.256-1.575 6.635-5.3l1.292-3.815-16.219-42.248c-.186-.56.185-.933.74-.933h9.12c.553 0 .922.374 1.102.933l10.048 29.313h.181l9.586-29.313c.184-.56.554-.933 1.101-.933h8.752c.557 0 .927.374.739.933L494.949 88.32c-3.867 10.61-7.559 13.957-14.927 13.957l-2.86.003Z"/>
    <path d="M63.152 74.18c-1.013-3.169-1.474-6.144-1.474-11.075 0-4.924.46-7.903 1.474-11.06 2.488-7.817 9.3-12.379 18.328-12.379 8.933 0 15.749 4.56 18.237 12.379 1.008 3.157 1.472 6.136 1.472 11.06 0 4.93-.464 7.906-1.472 11.076-2.49 7.811-9.304 12.37-18.237 12.37-9.028.001-15.84-4.557-18.328-12.37m26.617-2.791c.739-2.323.922-4.467.922-8.284 0-3.806-.183-5.856-.922-8.272-1.288-3.719-4.145-5.864-8.289-5.864-4.142 0-7.094 2.145-8.38 5.864-.734 2.418-.92 4.466-.92 8.272 0 3.817.186 5.96.92 8.284 1.286 3.725 4.24 5.858 8.38 5.858 4.144-.002 7.001-2.134 8.289-5.858"/>
    <path d="M280.688 39.654c-7.28 0-12.161 1.766-15.758 4.373-.364.283-.459.742-.179 1.207l3.4 6.145c.286.466.831.56 1.296.187 2.12-1.672 5.157-3.073 10.136-3.073 7.26 0 9.724 2.203 9.85 7.044h.001v.06c.004.112.004.227.004.347v14.518c0 5.118-3.5 7.626-9.855 7.626-4.98 0-7.648-1.857-7.648-5.577 0-4.19 2.95-6.056 9.582-6.056l2.016.004c.552 0 .924-.373.924-.927v-5.966c0-.556-.372-.928-.924-.928h-.443l-3.23-.002c-10.964 0-17.789 4.474-17.789 14.239 0 9.4 6.825 13.679 14.93 13.679 6.26 0 10.408-2.138 12.528-5.21h.09v3.258c0 .56.373.933.924.933h7.738c.554 0 .924-.371.924-.933V55.29c.001-10.979-4.973-15.635-18.517-15.635"/>
    <path d="M170.606 58.633c-.24 0-.398.16-.398.4v7.017c0 .24.158.402.398.402h22.816c.646 0 1.015-.37 1.015-.924 0-7.265-.464-10.337-1.474-13.498-2.491-7.63-9.123-12.375-18.246-12.375-8.844 0-15.66 4.558-18.152 12.375-.917 2.885-1.474 6.422-1.474 11.075s.645 8.093 1.573 10.98c2.486 7.814 9.117 12.467 18.514 12.467 8.198 0 14.468-3.164 18.242-7.63.366-.463.366-.928-.093-1.304l-5.431-4.838c-.465-.371-.924-.275-1.387.186-2.208 2.422-5.433 4.282-10.409 4.282-4.97 0-8.475-2.418-9.95-6.79a10.948 10.948 0 0 1-.523-1.95h-.002c-.335-1.895-.533-3.739-.533-6.447.072-2.553.22-4.183.581-6.255.004-.029.01-.054.015-.08l.01-.06v.002c.088-.488.209-.947.358-1.405 1.198-3.628 4.514-5.768 8.756-5.768 4.147 0 7.459 2.14 8.657 5.768.371 1.123.552 2.234.552 3.82 0 .37-.183.553-.552.553h-12.106l.002-.001-.759-.002Z"/>
    <path d="M146.53 22.256h-8.462c-.558 0-.925.372-.925.924v42.396h-.047c-.099 2.565-.377 4.251-.87 5.832-1.196 3.713-4.054 5.756-8.282 5.756-4.14 0-6.99-2.043-8.191-5.756-.643-2.047-.915-4.275-.915-8.363 0-4.086.272-6.319.915-8.358 1.178-3.643 3.937-5.7 7.94-5.781h3.613c.176-.043.29-.182.29-.382l.047-8.495a.369.369 0 0 0-.337-.388l-2.884-.01h-3.39v.001c-7.418.079-12.847 3.695-15.121 10.771-1.105 3.442-1.565 6.607-1.565 12.642 0 6.038.46 9.199 1.565 12.634 2.299 7.156 7.82 10.78 15.363 10.78 5.983 0 9.664-2.226 11.775-5.297h.09v3.345c0 .56.37.931.926.931h8.462c.553 0 .922-.37.922-.93V23.18c.004-.554-.366-.924-.918-.924"/>
    <path d="M368.386 58.633c-.236 0-.398.16-.398.4v7.017c0 .24.162.402.398.402h22.822c.644 0 1.013-.37 1.013-.924 0-7.265-.463-10.337-1.472-13.498-2.492-7.63-9.125-12.375-18.244-12.375-8.847 0-15.663 4.558-18.154 12.375-.919 2.885-1.475 6.422-1.475 11.075s.646 8.093 1.573 10.98c2.484 7.814 9.118 12.467 18.515 12.467 8.197 0 14.468-3.164 18.244-7.63.366-.463.366-.928-.095-1.304l-5.432-4.838c-.462-.371-.922-.275-1.384.186-2.208 2.422-5.432 4.282-10.411 4.282-4.97 0-8.474-2.418-9.95-6.79a10.796 10.796 0 0 1-.52-1.95h-.002c-.337-1.895-.534-3.739-.534-6.447.068-2.553.215-4.183.579-6.255a.696.696 0 0 0 .014-.08c.004-.022.008-.038.011-.06v.002a11.1 11.1 0 0 1 .359-1.405c1.196-3.628 4.515-5.768 8.757-5.768 4.147 0 7.458 2.14 8.656 5.768.37 1.123.555 2.234.555 3.82 0 .37-.185.553-.555.553H369.15v-.001l-.764-.002Z"/>
    <path d="M336.272 22.256c-.555 0-.924.373-.924.926V65.64c-.145 2.57-.425 4.257-.918 5.84-1.199 3.72-4.061 5.768-8.293 5.768-4.143 0-6.999-2.048-8.202-5.769-.64-2.05-.92-4.28-.92-8.374 0-4.092.276-6.33.92-8.372 1.178-3.648 3.942-5.69 7.953-5.77l3.618.002c.554 0 .924-.372.924-.926v-7.456c0-.556-.37-.928-.924-.928h-.443l-5.47-.001h-.371c-7.426.079-12.864 3.702-15.14 10.789-1.107 3.447-1.566 6.613-1.566 12.658 0 6.047.459 9.214 1.566 12.655 2.301 7.164 7.833 10.794 15.386 10.794 5.991 0 9.677-2.228 11.794-5.304l.09 3.35c0 .562.369.932.925.932h8.477c.553 0 .924-.368.924-.933V23.182c-.007-.554-.377-.926-.927-.926h-8.48Z"/>
    <path d="M221.582 98.218v8.48c0 .557.37.927.923.927h31.42c.56 0 .932-.372.932-.928v-8.479c0-.55-.371-.922-.933-.922h-31.419c-.554 0-.923.372-.923.922"/>
    <path d="M213.605.3c-.014-.015-.023-.033-.036-.045l-.003-.002a.924.924 0 0 0-.664-.253H1.116c-.07 0-.136.007-.2.018L.862.032C.82.043.776.052.738.068a.056.056 0 0 0-.018.01C.392.211.19.517.19.923v105.768c0 .323.126.576.338.737.016.016.03.03.052.041v.002a.984.984 0 0 0 .536.144H212.9c.312 0 .565-.12.725-.327a.93.93 0 0 0 .199-.599V.924a.93.93 0 0 0-.219-.624ZM11.43 97.293c-.066 0-.13-.006-.188-.015-.018-.003-.038-.012-.056-.017-.043-.01-.086-.018-.125-.035-.007-.001-.011-.007-.018-.009-.327-.132-.526-.437-.528-.839V11.247c0-.408.201-.71.528-.847.009-.002.014-.007.02-.009.037-.014.16-.045.179-.05.06-.01.125-.015.192-.015h191.145a1.3 1.3 0 0 1 .192.015c.02.005.038.012.054.018a.719.719 0 0 1 .125.034c.01.002.013.007.02.009.328.134.527.44.527.846V96.38c-.001.403-.202.708-.525.841-.007.002-.01.007-.02.009a.896.896 0 0 1-.124.034c-.02.005-.035.014-.055.018-.061.01-.12.014-.187.014H11.43v-.003Z"/>
  </g>
</svg>
